dist/assets/img/icons/crown-r.svg

<svg width="21" height="49" viewBox="0 0 21 49" fill="none" xmlns="http://www.w3.org/2000/svg">
<path d="M15.022 5.44854C16.6957 4.29482 17.3799 2.02103 16.793 0L14.9599 1.26279C13.2862 2.41652 12.602 4.68982 13.1889 6.71086L15.022 5.44854Z" fill="url(#paint0_linear)"/>
<path d="M14.266 13.0211L14.4743 13.088C14.8255 12.8348 15.1444 12.5365 15.4178 12.2003L17.2176 9.9891C15.1361 8.97242 12.5307 9.47839 11.0326 11.3178L9.55892 13.1269C11.0663 12.5645 12.7141 12.5227 14.266 13.0211Z" fill="url(#paint1_linear)"/>
<path d="M13.4252 35.2327L11.4923 33.1311C10.0979 34.9402 10.158 37.5169 11.7666 39.2667L13.5303 41.1849C13.0725 39.5328 13.2109 37.7237 14.0473 36.0882C13.8732 35.7861 13.6687 35.4978 13.4252 35.2327Z" fill="url(#paint2_linear)"/>
<path d="M6.91525 36.1615L5.84071 33.5439C5.34575 32.3389 4.39642 31.3929 3.16733 30.8813C2.25077 30.4976 1.25889 30.3919 0.302221 30.5607L1.37725 33.1768C1.87221 34.3823 2.82154 35.3283 4.05063 35.8409C4.96719 36.2236 5.95663 36.3284 6.91525 36.1615Z" fill="url(#paint3_linear)"/>
<path d="M4.23897 28.2958L4.15191 25.4814C4.11181 24.1849 3.55277 22.9805 2.58046 22.0918C1.85318 21.4289 0.961558 20.9993 0 20.8399L0.0880368 23.6557C0.128143 24.9522 0.687176 26.1562 1.65998 27.0448C2.3858 27.7073 3.27742 28.1374 4.23897 28.2958Z" fill="url(#paint4_linear)"/>
<path d="M17.0856 45.6087C15.8555 44.9548 14.4391 44.8111 13.1029 45.2018C12.0592 45.5044 11.1578 46.1047 10.4897 46.9237L13.231 48.3785C14.4601 49.03 15.8775 49.1756 17.2137 48.7854C18.2785 48.4752 19.1867 47.8507 19.8583 47.0062L17.0856 45.6087Z" fill="url(#paint5_linear)"/>
<path d="M18.2173 39.1807L15.5067 37.7434C14.7614 40.0868 15.7782 42.7011 18.0481 43.906L20.7777 45.2826C21.4859 42.9543 20.4671 40.3742 18.2173 39.1807Z" fill="url(#paint6_linear)"/>
<path d="M4.49764 20.0175L5.40785 17.344C6.16741 15.1181 5.16575 12.731 3.14334 11.6071L2.23167 14.2807C1.47456 16.5066 2.47622 18.8937 4.49764 20.0175Z" fill="url(#paint7_linear)"/>
<path d="M10.273 40.5598C9.38284 39.5925 8.15766 39.0177 6.82146 38.9437C5.82175 38.8845 4.85726 39.1168 4.01553 39.5934L5.94891 41.695C6.83955 42.6643 8.06522 43.2381 9.40044 43.3121C10.4011 43.3704 11.3661 43.1395 12.2064 42.6634L10.273 40.5598Z" fill="url(#paint8_linear)"/>
<path d="M9.76033 24.7122L9.96477 24.6335C10.0655 24.2195 10.112 23.7932 10.0988 23.364L10.0117 20.5497C9.0619 20.7645 8.19767 21.2439 7.51441 21.9471C6.59687 22.8922 6.11413 24.1256 6.15522 25.422L6.22712 27.7333C6.98374 26.407 8.19767 25.3163 9.76033 24.7122Z" fill="url(#paint9_linear)"/>
<path d="M7.70188 32.8249L8.58519 34.9759C8.82778 33.4774 9.58391 32.0487 10.8399 30.9632L11.0052 30.8205C10.9544 30.3989 10.8472 29.9821 10.6829 29.5842L9.60886 26.9686C7.65982 28.2058 6.80733 30.6465 7.70188 32.8249Z" fill="url(#paint10_linear)"/>
<path d="M11.7445 17.328L12.6557 14.6536C11.6834 14.5378 10.7057 14.7048 9.81409 15.1391C8.62022 15.7224 7.73055 16.722 7.30993 17.9526L6.56504 20.1415C7.78289 19.1129 9.31522 18.5292 10.9512 18.4818L11.1703 18.4761C11.411 18.1204 11.6052 17.7349 11.7445 17.328Z" fill="url(#paint11_linear)"/>
<path d="M7.66067 12.3252L9.46054 10.1145C10.9591 8.27316 10.8589 5.69779 9.35636 3.97313L7.55747 6.18242C6.72895 7.201 6.3587 8.47043 6.51472 9.7593C6.63015 10.7196 7.02974 11.6044 7.66067 12.3252Z" fill="url(#paint12_linear)"/>
<defs>
<linearGradient id="paint0_linear" x1="10.5" y1="0" x2="10.5" y2="49" gradientUnits="userSpaceOnUse">
<stop stop-color="#B5212E"/>
<stop offset="1" stop-color="#051223"/>
</linearGradient>
<linearGradient id="paint1_linear" x1="10.5" y1="0" x2="10.5" y2="49" gradientUnits="userSpaceOnUse">
<stop stop-color="#B5212E"/>
<stop offset="1" stop-color="#051223"/>
</linearGradient>
<linearGradient id="paint2_linear" x1="10.5" y1="0" x2="10.5" y2="49" gradientUnits="userSpaceOnUse">
<stop stop-color="#B5212E"/>
<stop offset="1" stop-color="#051223"/>
</linearGradient>
<linearGradient id="paint3_linear" x1="10.5" y1="0" x2="10.5" y2="49" gradientUnits="userSpaceOnUse">
<stop stop-color="#B5212E"/>
<stop offset="1" stop-color="#051223"/>
</linearGradient>
<linearGradient id="paint4_linear" x1="10.5" y1="0" x2="10.5" y2="49" gradientUnits="userSpaceOnUse">
<stop stop-color="#B5212E"/>
<stop offset="1" stop-color="#051223"/>
</linearGradient>
<linearGradient id="paint5_linear" x1="10.5" y1="0" x2="10.5" y2="49" gradientUnits="userSpaceOnUse">
<stop stop-color="#B5212E"/>
<stop offset="1" stop-color="#051223"/>
</linearGradient>
<linearGradient id="paint6_linear" x1="10.5" y1="0" x2="10.5" y2="49" gradientUnits="userSpaceOnUse">
<stop stop-color="#B5212E"/>
<stop offset="1" stop-color="#051223"/>
</linearGradient>
<linearGradient id="paint7_linear" x1="10.5" y1="0" x2="10.5" y2="49" gradientUnits="userSpaceOnUse">
<stop stop-color="#B5212E"/>
<stop offset="1" stop-color="#051223"/>
</linearGradient>
<linearGradient id="paint8_linear" x1="10.5" y1="0" x2="10.5" y2="49" gradientUnits="userSpaceOnUse">
<stop stop-color="#B5212E"/>
<stop offset="1" stop-color="#051223"/>
</linearGradient>
<linearGradient id="paint9_linear" x1="10.5" y1="0" x2="10.5" y2="49" gradientUnits="userSpaceOnUse">
<stop stop-color="#B5212E"/>
<stop offset="1" stop-color="#051223"/>
</linearGradient>
<linearGradient id="paint10_linear" x1="10.5" y1="0" x2="10.5" y2="49" gradientUnits="userSpaceOnUse">
<stop stop-color="#B5212E"/>
<stop offset="1" stop-color="#051223"/>
</linearGradient>
<linearGradient id="paint11_linear" x1="10.5" y1="0" x2="10.5" y2="49" gradientUnits="userSpaceOnUse">
<stop stop-color="#B5212E"/>
<stop offset="1" stop-color="#051223"/>
</linearGradient>
<linearGradient id="paint12_linear" x1="10.5" y1="0" x2="10.5" y2="49" gradientUnits="userSpaceOnUse">
<stop stop-color="#B5212E"/>
<stop offset="1" stop-color="#051223"/>
</linearGradient>
</defs>
</svg>

<svg width="21" height="49" fill="none" xmlns="http://www.w3.org/2000/svg"><path d="M15.022 5.449C16.696 4.295 17.38 2.02 16.793 0L14.96 1.263c-1.674 1.154-2.358 3.427-1.771 5.448l1.833-1.262z" fill="url(#paint0_linear)"/><path d="M14.266 13.021l.208.067c.351-.253.67-.551.944-.888l1.8-2.21c-2.082-1.018-4.687-.512-6.185 1.328l-1.474 1.809a7.16 7.16 0 014.707-.106z" fill="url(#paint1_linear)"/><path d="M13.425 35.233l-1.933-2.102a4.75 4.75 0 00.275 6.136l1.763 1.918a7.025 7.025 0 01.517-5.097 4.803 4.803 0 00-.622-.855z" fill="url(#paint2_linear)"/><path d="M6.915 36.161l-1.074-2.617a4.89 4.89 0 00-2.674-2.663 5.109 5.109 0 00-2.865-.32l1.075 2.616a4.895 4.895 0 002.674 2.664 5.13 5.13 0 002.864.32z" fill="url(#paint3_linear)"/><path d="M4.239 28.296l-.087-2.815a4.77 4.77 0 00-1.572-3.39A5.042 5.042 0 000 20.84l.088 2.816c.04 1.296.6 2.5 1.572 3.389a5.026 5.026 0 002.579 1.25z" fill="url(#paint4_linear)"/><path d="M17.086 45.609a5.285 5.285 0 00-3.983-.407 5.237 5.237 0 00-2.613 1.722l2.741 1.455a5.298 5.298 0 003.983.406 5.233 5.233 0 002.644-1.779l-2.772-1.397z" fill="url(#paint5_linear)"/><path d="M18.217 39.18l-2.71-1.437a5.201 5.201 0 002.541 6.163l2.73 1.377a5.203 5.203 0 00-2.56-6.102z" fill="url(#paint6_linear)"/><path d="M4.498 20.017l.91-2.673c.76-2.226-.242-4.613-2.265-5.737l-.911 2.674c-.757 2.226.244 4.613 2.266 5.736z" fill="url(#paint7_linear)"/><path d="M10.273 40.56a5.038 5.038 0 00-3.452-1.616c-1-.06-1.964.173-2.805.65l1.933 2.101A5.033 5.033 0 009.4 43.312a5.07 5.07 0 002.806-.649l-1.933-2.103z" fill="url(#paint8_linear)"/><path d="M9.76 24.712l.205-.078c.1-.415.147-.84.134-1.27l-.087-2.814a5.01 5.01 0 00-2.498 1.397 4.738 4.738 0 00-1.359 3.475l.072 2.311a6.913 6.913 0 013.533-3.02z" fill="url(#paint9_linear)"/><path d="M7.702 32.825l.883 2.15a6.704 6.704 0 012.255-4.012l.165-.143a4.72 4.72 0 00-.322-1.236L9.609 26.97c-1.95 1.237-2.802 3.677-1.907 5.856z" fill="url(#paint10_linear)"/><path d="M11.745 17.328l.91-2.674a5.088 5.088 0 00-2.84.485 4.88 4.88 0 00-2.505 2.814l-.745 2.189a7.079 7.079 0 014.386-1.66l.22-.006c.24-.356.434-.741.574-1.148z" fill="url(#paint11_linear)"/><path d="M7.66 12.325l1.8-2.21a4.751 4.751 0 00-.104-6.142l-1.799 2.21a4.724 4.724 0 00-1.042 3.576c.115.96.515 1.845 1.146 2.566z" fill="url(#paint12_linear)"/><defs><linearGradient id="paint0_linear" x1="10.5" y1="0" x2="10.5" y2="49" gradientUnits="userSpaceOnUse"><stop stop-color="#B5212E"/><stop offset="1" stop-color="#051223"/></linearGradient><linearGradient id="paint1_linear" x1="10.5" y1="0" x2="10.5" y2="49" gradientUnits="userSpaceOnUse"><stop stop-color="#B5212E"/><stop offset="1" stop-color="#051223"/></linearGradient><linearGradient id="paint2_linear" x1="10.5" y1="0" x2="10.5" y2="49" gradientUnits="userSpaceOnUse"><stop stop-color="#B5212E"/><stop offset="1" stop-color="#051223"/></linearGradient><linearGradient id="paint3_linear" x1="10.5" y1="0" x2="10.5" y2="49" gradientUnits="userSpaceOnUse"><stop stop-color="#B5212E"/><stop offset="1" stop-color="#051223"/></linearGradient><linearGradient id="paint4_linear" x1="10.5" y1="0" x2="10.5" y2="49" gradientUnits="userSpaceOnUse"><stop stop-color="#B5212E"/><stop offset="1" stop-color="#051223"/></linearGradient><linearGradient id="paint5_linear" x1="10.5" y1="0" x2="10.5" y2="49" gradientUnits="userSpaceOnUse"><stop stop-color="#B5212E"/><stop offset="1" stop-color="#051223"/></linearGradient><linearGradient id="paint6_linear" x1="10.5" y1="0" x2="10.5" y2="49" gradientUnits="userSpaceOnUse"><stop stop-color="#B5212E"/><stop offset="1" stop-color="#051223"/></linearGradient><linearGradient id="paint7_linear" x1="10.5" y1="0" x2="10.5" y2="49" gradientUnits="userSpaceOnUse"><stop stop-color="#B5212E"/><stop offset="1" stop-color="#051223"/></linearGradient><linearGradient id="paint8_linear" x1="10.5" y1="0" x2="10.5" y2="49" gradientUnits="userSpaceOnUse"><stop stop-color="#B5212E"/><stop offset="1" stop-color="#051223"/></linearGradient><linearGradient id="paint9_linear" x1="10.5" y1="0" x2="10.5" y2="49" gradientUnits="userSpaceOnUse"><stop stop-color="#B5212E"/><stop offset="1" stop-color="#051223"/></linearGradient><linearGradient id="paint10_linear" x1="10.5" y1="0" x2="10.5" y2="49" gradientUnits="userSpaceOnUse"><stop stop-color="#B5212E"/><stop offset="1" stop-color="#051223"/></linearGradient><linearGradient id="paint11_linear" x1="10.5" y1="0" x2="10.5" y2="49" gradientUnits="userSpaceOnUse"><stop stop-color="#B5212E"/><stop offset="1" stop-color="#051223"/></linearGradient><linearGradient id="paint12_linear" x1="10.5" y1="0" x2="10.5" y2="49" gradientUnits="userSpaceOnUse"><stop stop-color="#B5212E"/><stop offset="1" stop-color="#051223"/></linearGradient></defs></svg>
